packages/icons/src/SVG/visible.svg

<svg width="12" height="12" viewBox="0 0 12 12" fill="none" xmlns="http://www.w3.org/2000/svg">
<path fill-rule="evenodd" clip-rule="evenodd" d="M8.25 6C8.25 7.24264 7.24264 8.25 6 8.25C4.75736 8.25 3.75 7.24264 3.75 6C3.75 4.75736 4.75736 3.75 6 3.75C7.24264 3.75 8.25 4.75736 8.25 6ZM7.25 6C7.25 6.69036 6.69036 7.25 6 7.25C5.30964 7.25 4.75 6.69036 4.75 6C4.75 5.30964 5.30964 4.75 6 4.75C6.69036 4.75 7.25 5.30964 7.25 6Z" fill="#4C505B"/>
<path fill-rule="evenodd" clip-rule="evenodd" d="M6 10C9 10 11.25 7.25 12 5.875C11.125 4.58333 9 2 6 2C3 2 0.875 4.58333 0 5.875C0.75 7.25 3 10 6 10ZM2.79643 7.6849C2.11365 7.11592 1.56819 6.46025 1.20022 5.91905C1.60503 5.38963 2.15422 4.76943 2.82537 4.23595C3.73111 3.516 4.79887 3 6 3C7.20113 3 8.26889 3.516 9.17463 4.23595C9.84578 4.76943 10.395 5.38963 10.7998 5.91905C10.4318 6.46025 9.88635 7.11592 9.20357 7.6849C8.27934 8.45509 7.18627 9 6 9C4.81373 9 3.72066 8.45509 2.79643 7.6849Z" fill="#4C505B"/>
</svg>

<!-- Generated by IcoMoon.io -->
<svg version="1.1" xmlns="http://www.w3.org/2000/svg" width="12" height="12" viewBox="0 0 12 12">
<title>visible</title>
<path d="M8.25 6c0-1.243-1.007-2.25-2.25-2.25s-2.25 1.007-2.25 2.25c0 1.243 1.007 2.25 2.25 2.25s2.25-1.007 2.25-2.25zM7.25 6c0 0.69-0.56 1.25-1.25 1.25s-1.25-0.56-1.25-1.25c0-0.69 0.56-1.25 1.25-1.25s1.25 0.56 1.25 1.25z"></path>
<path d="M6 10c3 0 5.25-2.75 6-4.125-0.875-1.292-3-3.875-6-3.875s-5.125 2.583-6 3.875c0.75 1.375 3 4.125 6 4.125zM2.796 7.685c-0.683-0.569-1.228-1.225-1.596-1.766 0.405-0.529 0.954-1.15 1.625-1.683 0.906-0.72 1.973-1.236 3.175-1.236s2.269 0.516 3.175 1.236c0.671 0.533 1.22 1.154 1.625 1.683-0.368 0.541-0.913 1.197-1.596 1.766-0.924 0.77-2.017 1.315-3.204 1.315s-2.279-0.545-3.204-1.315z"></path>
</svg>
